app/assets/icons/table.svg

<svg width="47px" height="37px" viewBox="0 0 47 37" version="1.1" xmlns="http://www.w3.org/2000/svg" xmlns:xlink="http://www.w3.org/1999/xlink">
    <!-- Generator: Sketch 48.2 (47327) - http://www.bohemiancoding.com/sketch -->
    <desc>Created with Sketch.</desc>
    <defs></defs>
    <g id="Page-1" stroke="none" stroke-width="1" fill="none" fill-rule="evenodd">
        <g id="table" fill="#000000">
            <path d="M1.79671,0.01482 C0.77839,0.12695 0.00941,0.99036 0.01546,2.01482 L0.01546,34.01482 C0.01557,35.11934 0.91094,36.01471 2.01546,36.01482 L44.01546,36.01482 C45.11998,36.01471 46.01535,35.11934 46.01546,34.01482 L46.01546,2.01482 C46.01535,0.9103 45.11998,0.01493 44.01546,0.01482 L2.01546,0.01482 C1.9426,0.01083 1.86957,0.01083 1.79671,0.01482 Z M4.01546,4.01482 L11.01546,4.01482 L11.01546,4.76482 L11.01546,11.01482 L4.01546,11.01482 L4.01546,4.01482 Z M15.01546,4.01482 L42.01546,4.01482 L42.01546,11.01482 L15.01546,11.01482 L15.01546,4.76482 L15.01546,4.01482 Z M4.01546,15.01482 L11.01546,15.01482 L11.01546,31.73357 L11.01546,32.01482 L4.01546,32.01482 L4.01546,15.01482 Z M15.01546,15.01482 L42.01546,15.01482 L42.01546,32.01482 L15.01546,32.01482 L15.01546,31.73357 L15.01546,15.01482 Z" id="path12209"></path>
        </g>
    </g>
</svg>

<svg viewBox="0 0 47 37" version="1.1" xmlns="http://www.w3.org/2000/svg"><g stroke="none" stroke-width="1" fill="none" fill-rule="evenodd"><g fill="#000000"><path d="M1.797.015a2 2 0 00-1.782 2v32a2 2 0 002 2h42a2 2 0 002-2v-32a2 2 0 00-2-2h-42a2 2 0 00-.218 0zm2.218 4h7v7h-7v-7zm11 0h27v7h-27v-7zm-11 11h7V32.014h-7v-17zm11 0h27v17h-27V15.014z"/></g></g></svg>
